Newaita-dark/actions/24/view-statistics.svg

<svg height="24" viewBox="0 0 24 24" width="24" xmlns="http://www.w3.org/2000/svg"><g fill="#e0e0e0"><path d="m12.402344 3.164062h.992187c.273438 0 .496094.222657.496094.496094v17.863282c0 .273437-.222656.496093-.496094.496093h-.992187c-.273438 0-.496094-.222656-.496094-.496093v-17.863282c0-.273437.222656-.496094.496094-.496094zm0 0"/><path d="m16.371094 8.125h.992187c.277344 0 .496094.222656.496094.496094v12.902344c0 .273437-.21875.496093-.496094.496093h-.992187c-.273438 0-.496094-.222656-.496094-.496093v-12.902344c0-.273438.222656-.496094.496094-.496094zm0 0"/><path d="m4.464844 16.0625h.992187c.273438 0 .496094.222656.496094.496094v4.964844c0 .273437-.222656.496093-.496094.496093h-.992187c-.273438 0-.496094-.222656-.496094-.496093v-4.964844c0-.273438.222656-.496094.496094-.496094zm0 0"/><path d="m8.433594 11.101562h.992187c.273438 0 .496094.222657.496094.496094v9.925782c0 .273437-.222656.496093-.496094.496093h-.992187c-.273438 0-.496094-.222656-.496094-.496093v-9.925782c0-.273437.222656-.496094.496094-.496094zm0 0"/><path d="m20.339844 19.039062h.996094c.273437 0 .496093.222657.496093.496094v1.988282c0 .273437-.222656.496093-.496093.496093h-.996094c-.273438 0-.496094-.222656-.496094-.496093v-1.988282c0-.273437.222656-.496094.496094-.496094zm0 0"/></g></svg>

<?xml version="1.0" encoding="UTF-8"?>
<svg xmlns="http://www.w3.org/2000/svg" xmlns:xlink="http://www.w3.org/1999/xlink" width="24px" height="24px" viewBox="0 0 24 24" version="1.1">
<g id="surface1">
<path style=" stroke:none;fill-rule:nonzero;fill:rgb(87.843138%,87.843138%,87.843138%);fill-opacity:1;" d="M 12.402344 3.164062 L 13.394531 3.164062 C 13.667969 3.164062 13.890625 3.386719 13.890625 3.660156 L 13.890625 21.523438 C 13.890625 21.796875 13.667969 22.019531 13.394531 22.019531 L 12.402344 22.019531 C 12.128906 22.019531 11.90625 21.796875 11.90625 21.523438 L 11.90625 3.660156 C 11.90625 3.386719 12.128906 3.164062 12.402344 3.164062 Z M 12.402344 3.164062 "/>
<path style=" stroke:none;fill-rule:nonzero;fill:rgb(87.843138%,87.843138%,87.843138%);fill-opacity:1;" d="M 16.371094 8.125 L 17.363281 8.125 C 17.640625 8.125 17.859375 8.347656 17.859375 8.621094 L 17.859375 21.523438 C 17.859375 21.796875 17.640625 22.019531 17.363281 22.019531 L 16.371094 22.019531 C 16.097656 22.019531 15.875 21.796875 15.875 21.523438 L 15.875 8.621094 C 15.875 8.347656 16.097656 8.125 16.371094 8.125 Z M 16.371094 8.125 "/>
<path style=" stroke:none;fill-rule:nonzero;fill:rgb(87.843138%,87.843138%,87.843138%);fill-opacity:1;" d="M 4.464844 16.0625 L 5.457031 16.0625 C 5.730469 16.0625 5.953125 16.285156 5.953125 16.558594 L 5.953125 21.523438 C 5.953125 21.796875 5.730469 22.019531 5.457031 22.019531 L 4.464844 22.019531 C 4.191406 22.019531 3.96875 21.796875 3.96875 21.523438 L 3.96875 16.558594 C 3.96875 16.285156 4.191406 16.0625 4.464844 16.0625 Z M 4.464844 16.0625 "/>
<path style=" stroke:none;fill-rule:nonzero;fill:rgb(87.843138%,87.843138%,87.843138%);fill-opacity:1;" d="M 8.433594 11.101562 L 9.425781 11.101562 C 9.699219 11.101562 9.921875 11.324219 9.921875 11.597656 L 9.921875 21.523438 C 9.921875 21.796875 9.699219 22.019531 9.425781 22.019531 L 8.433594 22.019531 C 8.160156 22.019531 7.9375 21.796875 7.9375 21.523438 L 7.9375 11.597656 C 7.9375 11.324219 8.160156 11.101562 8.433594 11.101562 Z M 8.433594 11.101562 "/>
<path style=" stroke:none;fill-rule:nonzero;fill:rgb(87.843138%,87.843138%,87.843138%);fill-opacity:1;" d="M 20.339844 19.039062 L 21.335938 19.039062 C 21.609375 19.039062 21.832031 19.261719 21.832031 19.535156 L 21.832031 21.523438 C 21.832031 21.796875 21.609375 22.019531 21.335938 22.019531 L 20.339844 22.019531 C 20.066406 22.019531 19.84375 21.796875 19.84375 21.523438 L 19.84375 19.535156 C 19.84375 19.261719 20.066406 19.039062 20.339844 19.039062 Z M 20.339844 19.039062 "/>
</g>
</svg>
